icon-svg/wall-impress-narrow.svg

<svg xmlns="http://www.w3.org/2000/svg" viewBox="0 0 24 24"><path fill="#44739e" d="M13.294 2 6 3.647v1.177h-.235v14.823H6v.941L13.529 22l4.706-1.176V4.353Zm.941 1.647 3.059 1.647v.235l-2.118.236v.47L17.059 6v13.176l-1.883-.235v.471l2.118.235v.235l-3.059.706Zm-1.882 0v16.941l-5.412-.941v-.235l2.118-.236V5.765l-2.118-.941a.23.23 0 0 1 .235-.236c.236 0 5.177-.941 5.177-.941"/></svg>

<?xml version="1.0" encoding="UTF-8"?>
<svg width="33px" height="32px" viewBox="0 0 24 24" version="1.1" fill="#44739e" xmlns="http://www.w3.org/2000/svg" xmlns:xlink="http://www.w3.org/1999/xlink">
            <path d="M 13.294,2 6,3.647 V 4.824 H 5.765 V 19.647 H 6 v 0.941 L 13.529,22 18.235,20.824 V 4.353 Z m 0.941,1.647 3.059,1.647 v 0.235 l -2.118,0.236 v 0.47 L 17.059,6 v 13.176 l -1.883,-0.235 v 0.471 l 2.118,0.235 v 0.235 l -3.059,0.706 z m -1.882,0 V 20.588 L 6.941,19.647 V 19.412 L 9.059,19.176 V 5.765 L 6.941,4.824 A 0.231,0.231 0 0 1 7.176,4.588 c 0.236,0 5.177,-0.941 5.177,-0.941"></path>

</svg>
